X:1
T:Naphtali, 66.66.88
T:Naphtali, 66.66.88
T:H. T. Leslie
T:Public Domain Courtesy of the Cyber Hymnal™
C:H. T. Leslie
Z:Public Domain
Z:Courtesy of the Cyber Hymnal™
%%score ( 1 2 ) ( 3 4 )
L:1/8
Q:1/4=113
M:4/4
K:Ab
V:1 treble 
V:2 treble 
V:3 bass 
V:4 bass 
V:1
 [CE]2 | [EA]2 [Ec]2 [Ec]2 [DB]2 | [CA]6 [CA]2 | [Ec]2 [Ee]2 [Ee]2 [Ed]2 | [Ec]6 [Ec]2 | %5
 [EB]2 [Ec]2 [EB]2 [=DA]2 | [EG]6 (=dc) | [GB]2 ([FA][EG]) [EG]2 [=DF]2 | E6 [CE]2 | %9
 [DF]2 [DG]2 [CA]3 [FA] | [GB]2 [_Gc]2 [Fd]3 [Fd] | [Ec]2 [EB]2 [Ee]3 [Fd] | [Ec]2 [DB]2 [CA]2 |] %13
V:2
 x2 | x8 | x8 | x8 | x8 | x8 | x6 A2 | x8 | E6 x2 | x8 | x8 | x8 | x6 |] %13
V:3
 A,2 | [A,C]2 A,2 [E,A,]2 [E,G,]2 | [A,,A,]6 [A,,A,]2 | A,2 [A,C]2 [E,C]2 [E,B,]2 | A,6 A,2 | %5
 [G,B,]2 A,2 [G,B,]2 [F,B,]2 | [E,B,]6 [F,B,]2 | [G,B,]2 [A,C]2 B,2 [B,,A,]2 | [E,G,]6 A,2 | %9
 [D,A,]2 [B,,B,]2 [F,A,]3 [F,C] | [E,E]2 [A,,E]2 [D,D]3 [D,A,] | A,2 [G,B,]2 [C,C]3 [D,A,] | %12
 [E,A,]2 [E,G,]2 [A,,A,]2 |] %13
V:4
 A,2 | x2 A,2 x4 | x8 | A,2 x6 | A,6 A,2 | x2 A,2 x4 | x8 | x4 B,2 x2 | x6 A,2 | x8 | x8 | A,2 x6 | %12
 x6 |] %13

